X:487
T: WENN D IN HIMMEL SAGT ER
N: F0927
O: Europa, Mitteleuropa, Deutschland
R: Liebes - Lied
M: 3/4
L: 1/16
K: Eb
c3B | G2E2E2E2c2B2 | A2F2F2F2
B3B | d2d2d2c2B2A2 | G2E2E2E2
B2B2 | G2E2E2E2e2e2 | e2F2F2F2
e2e2 | e2d2c2B2A2D2 | E8

